templates/event-template/img/video.svg

<?xml version="1.0" encoding="utf-8"?>
<!-- Generated by IcoMoon.io -->
<!DOCTYPE svg PUBLIC "-//W3C//DTD SVG 1.1//EN" "http://www.w3.org/Graphics/SVG/1.1/DTD/svg11.dtd">
<svg version="1.1" xmlns="http://www.w3.org/2000/svg" xmlns:xlink="http://www.w3.org/1999/xlink" width="16" height="16" viewBox="0 0 16 16">
<path fill="#CCCCCC" d="M16 4v-0.961c0-0.354-0.286-0.639-0.639-0.639h-14.72c-0.354 0-0.641 0.286-0.641 0.639v0.961h1.6v1.6h-1.6v1.6h1.6v1.6h-1.6v1.6h1.6v1.6h-1.6v0.959c0 0.354 0.286 0.641 0.641 0.641h14.72c0.354 0 0.639-0.287 0.639-0.641v-0.959h-1.6v-1.6h1.6v-1.6h-1.6v-1.6h1.6v-1.6h-1.6v-1.6h1.6zM6.4 10.4v-4.8l4 2.4-4 2.4z"></path>
</svg>

<svg xmlns="http://www.w3.org/2000/svg" width="16" height="16"><path fill="#CCC" d="M16 4v-.961a.638.638 0 0 0-.639-.639H.641A.64.64 0 0 0 0 3.039V4h1.6v1.6H0v1.6h1.6v1.6H0v1.6h1.6V12H0v.959a.64.64 0 0 0 .641.641h14.72a.64.64 0 0 0 .639-.641V12h-1.6v-1.6H16V8.8h-1.6V7.2H16V5.6h-1.6V4H16zm-9.6 6.4V5.6l4 2.4-4 2.4z"/></svg>
